material/.icons/material/file-clock-outline.svg

<svg xmlns="http://www.w3.org/2000/svg" viewBox="0 0 24 24"><path d="M4 2a2 2 0 00-2 2v16a2 2 0 002 2h8.41A7 7 0 0016 23a7 7 0 007-7 7 7 0 00-5-6.7V8l-6-6H4m0 2h7v5h5a7 7 0 00-7 7 7 7 0 001.26 4H4V4m12 7a5 5 0 015 5 5 5 0 01-5 5 5 5 0 01-5-5 5 5 0 015-5m-1 1v5l3.61 2.16.75-1.22-2.86-1.69V12H15z"/></svg>

<?xml version="1.0" encoding="UTF-8"?><!DOCTYPE svg PUBLIC "-//W3C//DTD SVG 1.1//EN" "http://www.w3.org/Graphics/SVG/1.1/DTD/svg11.dtd"><svg xmlns="http://www.w3.org/2000/svg" xmlns:xlink="http://www.w3.org/1999/xlink" version="1.1" id="mdi-file-clock-outline" width="24" height="24" viewBox="0 0 24 24"><path d="M4 2A2 2 0 0 0 2 4V20A2 2 0 0 0 4 22H12.41A7 7 0 0 0 16 23A7 7 0 0 0 23 16A7 7 0 0 0 18 9.3V8L12 2H4M4 4H11V9H16A7 7 0 0 0 9 16A7 7 0 0 0 10.26 20H4V4M16 11A5 5 0 0 1 21 16A5 5 0 0 1 16 21A5 5 0 0 1 11 16A5 5 0 0 1 16 11M15 12V17L18.61 19.16L19.36 17.94L16.5 16.25V12H15Z" /></svg>
